static/img/svg/stopwatch.svg

<svg xmlns="http://www.w3.org/2000/svg" width="24" height="24" viewBox="0 0 24 24"><path d="M12 22c4.411 0 8-3.589 8-8s-3.589-8-8-8-8 3.589-8 8 3.589 8 8 8zm0-14c3.309 0 6 2.691 6 6s-2.691 6-6 6-6-2.691-6-6 2.691-6 6-6z"/><path d="M11 10h2v4h-2zM9 2h6v2H9zM20.707 5.293l-1.414 1.414-2-2 1.414-1.414z"/></svg>

<svg xmlns="http://www.w3.org/2000/svg" width="24" height="24" viewBox="0 0 24 24"><path d="M12,22c4.411,0,8-3.589,8-8s-3.589-8-8-8s-8,3.589-8,8S7.589,22,12,22z M12,8c3.309,0,6,2.691,6,6s-2.691,6-6,6 s-6-2.691-6-6S8.691,8,12,8z"/><path d="M11 10H13V14H11zM9 2H15V4H9z"/><path transform="rotate(134.999 19 5)" d="M18 3.586H20V6.414H18z"/></svg>
